icons/svg/shaders/h_topo_scree.svg

<?xml version="1.0" encoding="UTF-8" standalone="no"?>
<svg
   xmlns:dc="http://purl.org/dc/elements/1.1/"
   xmlns:cc="http://creativecommons.org/ns#"
   xmlns:rdf="http://www.w3.org/1999/02/22-rdf-syntax-ns#"
   xmlns:svg="http://www.w3.org/2000/svg"
   xmlns="http://www.w3.org/2000/svg"
   xmlns:sodipodi="http://sodipodi.sourceforge.net/DTD/sodipodi-0.dtd"
   xmlns:inkscape="http://www.inkscape.org/namespaces/inkscape"
   width="16"
   height="16"
   viewBox="0 0 16 16"
   fill="none"
   version="1.1"
   id="svg35"
   sodipodi:docname="h_topo_scree.svg"
   inkscape:version="0.92.5 (2060ec1f9f, 2020-04-08)">
  <metadata
     id="metadata39">
    <rdf:RDF>
      <cc:Work
         rdf:about="">
        <dc:format>image/svg+xml</dc:format>
        <dc:type
           rdf:resource="http://purl.org/dc/dcmitype/StillImage" />
      </cc:Work>
    </rdf:RDF>
  </metadata>
  <sodipodi:namedview
     pagecolor="#ffffff"
     bordercolor="#666666"
     borderopacity="1"
     objecttolerance="10"
     gridtolerance="10"
     guidetolerance="10"
     inkscape:pageopacity="0"
     inkscape:pageshadow="2"
     inkscape:window-width="1720"
     inkscape:window-height="1051"
     id="namedview37"
     showgrid="false"
     inkscape:zoom="20.85965"
     inkscape:cx="8.6354294"
     inkscape:cy="8.5560007"
     inkscape:window-x="200"
     inkscape:window-y="0"
     inkscape:window-maximized="1"
     inkscape:current-layer="svg35" />
  <path
     style="fill:#91806c;fill-opacity:1"
     inkscape:connector-curvature="0"
     id="path2"
     d="m 6.5468,4.99121 c 0.27614,0 0.5,-0.22386 0.5,-0.5 0,-0.27614 -0.22386,-0.5 -0.5,-0.5 -0.27614,0 -0.5,0.22386 -0.5,0.5 0,0.27614 0.22386,0.5 0.5,0.5 z" />
  <path
     style="fill:#91806c;fill-opacity:1"
     inkscape:connector-curvature="0"
     id="path4"
     d="m 3.50002,7.98096 c 0.27614,0 0.5,-0.22386 0.5,-0.5 0,-0.27615 -0.22386,-0.5 -0.5,-0.5 -0.27615,0 -0.5,0.22385 -0.5,0.5 0,0.27614 0.22385,0.5 0.5,0.5 z" />
  <path
     style="fill:#91806c;fill-opacity:1"
     inkscape:connector-curvature="0"
     id="path6"
     d="m 11.5,8.02246 c 0.2762,0 0.5,-0.22386 0.5,-0.5 0,-0.27614 -0.2238,-0.5 -0.5,-0.5 -0.2761,0 -0.5,0.22386 -0.5,0.5 0,0.27614 0.2239,0.5 0.5,0.5 z" />
  <path
     style="fill:#91806c;fill-opacity:1"
     inkscape:connector-curvature="0"
     id="path8"
     d="m 13.5,15.8213 c 0.2762,0 0.5,-0.2239 0.5,-0.5 0,-0.2762 -0.2238,-0.5 -0.5,-0.5 -0.2761,0 -0.5,0.2238 -0.5,0.5 0,0.2761 0.2239,0.5 0.5,0.5 z" />
  <path
     style="fill:#91806c;fill-opacity:1"
     inkscape:connector-curvature="0"
     id="path10"
     d="m 9.49135,3 c 0.27614,0 0.5,-0.22386 0.5,-0.5 0,-0.27614 -0.22386,-0.5 -0.5,-0.5 -0.27614,0 -0.5,0.22386 -0.5,0.5 0,0.27614 0.22386,0.5 0.5,0.5 z" />
  <path
     style="fill:#91806c;fill-opacity:1"
     inkscape:connector-curvature="0"
     id="path12"
     d="m 1.60707,2 c 0.27614,0 0.5,-0.22386 0.5,-0.5 0,-0.27614 -0.22386,-0.5 -0.5,-0.5 -0.27614,0 -0.5,0.22386 -0.5,0.5 0,0.27614 0.22386,0.5 0.5,0.5 z" />
  <path
     style="fill:#91806c;fill-opacity:1"
     inkscape:connector-curvature="0"
     id="path14"
     d="m 8.50002,8.90625 c 0.27614,0 0.5,-0.22386 0.5,-0.5 0,-0.27614 -0.22386,-0.5 -0.5,-0.5 -0.27615,0 -0.5,0.22386 -0.5,0.5 0,0.27614 0.22385,0.5 0.5,0.5 z" />
  <path
     style="fill:#91806c;fill-opacity:1"
     inkscape:connector-curvature="0"
     id="path16"
     d="m 12.5,11.9375 c 0.2762,0 0.5,-0.2239 0.5,-0.5 0,-0.2761 -0.2238,-0.5 -0.5,-0.5 -0.2761,0 -0.5,0.2239 -0.5,0.5 0,0.2761 0.2239,0.5 0.5,0.5 z" />
  <path
     style="fill:#91806c;fill-opacity:1"
     inkscape:connector-curvature="0"
     id="path18"
     d="m 8.44154,14 c 0.27615,0 0.5,-0.2239 0.5,-0.5 0,-0.2761 -0.22385,-0.5 -0.5,-0.5 -0.27614,0 -0.5,0.2239 -0.5,0.5 0,0.2761 0.22386,0.5 0.5,0.5 z" />
  <path
     style="fill:#91806c;fill-opacity:1"
     inkscape:connector-curvature="0"
     id="path20"
     d="m 1.4008,12 c 0.27614,0 0.5,-0.2239 0.5,-0.5 0,-0.2761 -0.22386,-0.5 -0.5,-0.5 -0.27614,0 -0.499997,0.2239 -0.499997,0.5 0,0.2761 0.223857,0.5 0.499997,0.5 z" />
  <path
     style="fill:#91806c;fill-opacity:1"
     inkscape:connector-curvature="0"
     id="path22"
     d="m 12.4375,4 c 0.2762,0 0.5,-0.22386 0.5,-0.5 0,-0.27614 -0.2238,-0.5 -0.5,-0.5 -0.2761,0 -0.5,0.22386 -0.5,0.5 0,0.27614 0.2239,0.5 0.5,0.5 z" />
  <path
     style="fill:#91806c;fill-opacity:1"
     inkscape:connector-curvature="0"
     id="path24"
     d="m 15.5,3.9375 c 0.2762,0 0.5,-0.22386 0.5,-0.5 0,-0.27614 -0.2238,-0.5 -0.5,-0.5 -0.2761,0 -0.5,0.22386 -0.5,0.5 0,0.27614 0.2239,0.5 0.5,0.5 z" />
  <path
     style="fill:#91806c;fill-opacity:1"
     inkscape:connector-curvature="0"
     id="path26"
     d="m 4.50002,14.9062 c 0.27614,0 0.5,-0.2238 0.5,-0.5 0,-0.2761 -0.22386,-0.5 -0.5,-0.5 -0.27615,0 -0.5,0.2239 -0.5,0.5 0,0.2762 0.22385,0.5 0.5,0.5 z" />
  <defs
     id="defs33">
    <clipPath
       id="clip0">
      <path
         d="M0 0H16V16H0V0Z"
         fill="white"
         id="path30" />
    </clipPath>
  </defs>
</svg>

<svg width="16" height="16" viewBox="0 0 16 16" fill="none" xmlns="http://www.w3.org/2000/svg">
<g clip-path="url(#clip0)">
<path d="M6.5468 4.99121C6.82294 4.99121 7.0468 4.76735 7.0468 4.49121C7.0468 4.21507 6.82294 3.99121 6.5468 3.99121C6.27066 3.99121 6.0468 4.21507 6.0468 4.49121C6.0468 4.76735 6.27066 4.99121 6.5468 4.99121Z" fill="#B0A290"/>
<path d="M3.50002 7.98096C3.77616 7.98096 4.00002 7.7571 4.00002 7.48096C4.00002 7.20481 3.77616 6.98096 3.50002 6.98096C3.22387 6.98096 3.00002 7.20481 3.00002 7.48096C3.00002 7.7571 3.22387 7.98096 3.50002 7.98096Z" fill="#B0A290"/>
<path d="M11.5 8.02246C11.7762 8.02246 12 7.7986 12 7.52246C12 7.24632 11.7762 7.02246 11.5 7.02246C11.2239 7.02246 11 7.24632 11 7.52246C11 7.7986 11.2239 8.02246 11.5 8.02246Z" fill="#B0A290"/>
<path d="M13.5 15.8213C13.7762 15.8213 14 15.5974 14 15.3213C14 15.0451 13.7762 14.8213 13.5 14.8213C13.2239 14.8213 13 15.0451 13 15.3213C13 15.5974 13.2239 15.8213 13.5 15.8213Z" fill="#B0A290"/>
<path d="M9.49135 3C9.76749 3 9.99135 2.77614 9.99135 2.5C9.99135 2.22386 9.76749 2 9.49135 2C9.21521 2 8.99135 2.22386 8.99135 2.5C8.99135 2.77614 9.21521 3 9.49135 3Z" fill="#B0A290"/>
<path d="M1.60707 2C1.88321 2 2.10707 1.77614 2.10707 1.5C2.10707 1.22386 1.88321 1 1.60707 1C1.33093 1 1.10707 1.22386 1.10707 1.5C1.10707 1.77614 1.33093 2 1.60707 2Z" fill="#B0A290"/>
<path d="M8.50002 8.90625C8.77616 8.90625 9.00002 8.68239 9.00002 8.40625C9.00002 8.13011 8.77616 7.90625 8.50002 7.90625C8.22387 7.90625 8.00002 8.13011 8.00002 8.40625C8.00002 8.68239 8.22387 8.90625 8.50002 8.90625Z" fill="#B0A290"/>
<path d="M12.5 11.9375C12.7762 11.9375 13 11.7136 13 11.4375C13 11.1614 12.7762 10.9375 12.5 10.9375C12.2239 10.9375 12 11.1614 12 11.4375C12 11.7136 12.2239 11.9375 12.5 11.9375Z" fill="#B0A290"/>
<path d="M8.44154 14C8.71769 14 8.94154 13.7761 8.94154 13.5C8.94154 13.2239 8.71769 13 8.44154 13C8.1654 13 7.94154 13.2239 7.94154 13.5C7.94154 13.7761 8.1654 14 8.44154 14Z" fill="#B0A290"/>
<path d="M1.4008 12C1.67694 12 1.9008 11.7761 1.9008 11.5C1.9008 11.2239 1.67694 11 1.4008 11C1.12466 11 0.900803 11.2239 0.900803 11.5C0.900803 11.7761 1.12466 12 1.4008 12Z" fill="#B0A290"/>
<path d="M12.4375 4C12.7137 4 12.9375 3.77614 12.9375 3.5C12.9375 3.22386 12.7137 3 12.4375 3C12.1614 3 11.9375 3.22386 11.9375 3.5C11.9375 3.77614 12.1614 4 12.4375 4Z" fill="#B0A290"/>
<path d="M15.5 3.9375C15.7762 3.9375 16 3.71364 16 3.4375C16 3.16136 15.7762 2.9375 15.5 2.9375C15.2239 2.9375 15 3.16136 15 3.4375C15 3.71364 15.2239 3.9375 15.5 3.9375Z" fill="#B0A290"/>
<path d="M4.50002 14.9062C4.77616 14.9062 5.00002 14.6824 5.00002 14.4062C5.00002 14.1301 4.77616 13.9062 4.50002 13.9062C4.22387 13.9062 4.00002 14.1301 4.00002 14.4062C4.00002 14.6824 4.22387 14.9062 4.50002 14.9062Z" fill="#B0A290"/>
</g>
<defs>
<clipPath id="clip0">
<path d="M0 0H16V16H0V0Z" fill="white"/>
</clipPath>
</defs>
</svg>
